X:2224
T:Bruce Osborne's Reel
C:Bruce Osborne -- Dec.30 1992
R:reel
M:2/4
L:1/16
K:G
GA|B2Bc BAGE|DEDB, D2B,C|DGBG DGBG|DFAF d2GA|!
B2Bc BAGE|DEDB, D2B,C|DGBG DFAF|G2GF G2:|!
|:B,C|DGBG DGBG|DGBG cGBG|DGBG cGBG|DFAF d2GA|!
B2Bc BAGE|DEDB, D2B,C|DGBG DFAF|G2GF G2:|!


